X:26
T:AVANT-DEUX DES TOUCHES
R:Avant deux
Z: YVES BELOTTEAU
Z: Yves BELOTTEAU
M:4/4
L:1/8
Q:1/4=120
K:G
|DGAB GF/2E/2F/2E/2D|DGAB G/2B/2AF/2A/2B|DGAB GF/2E/2F/2E/2D|DGAB G/2B/2
A/2F/2A/2F/2G3/2 z/2 |
G/2B/2G/2B/2dd/2d/2 cedd/2d/2|cc/2c/2BB/2B/2 AABG|G/2B/2G/2B/2dd/2d/2 ce
dd/2d/2|cc/2c/2BB/2B/2 AABG|
G3/2 z/2 |:GG GBAA|AcBB Bdcc|c3/2 z/2:|
dd BG/2B/2AF/2A/2|BGdd BG/2B/2AA|A3/2 z/2 dd BG/2B/2AF/2A/2|BGdd BG/2B/2
A/2F/2A/2F/2|
G3/2|
